!!!COM: Schiørring, Niels
!!!CDT: 1743-1798
!!!OPR@@DA: Choral-Bog
!!!ONM: 4
!!!OTL@@DA: Af dybeﬅe Nød raaber jeg til dig
**kern	**fb	**kern	**kern	**kern	**kern	**kern	**kern	**kern
*part6	*part6	*part6	*part5	*part5	*part4	*part3	*part2	*part1
*staff8	*	*staff7	*staff6	*staff5	*staff4	*staff3	*staff2	*staff1
*clefF4	*	*clefC1	*clefF4	*clefC1	*clefF4	*clefC4	*clefC3	*clefC1
*mclefF4	*	*mclefG2	*mclefF4	*mclefG2	*mclefF4	*mclefGv2	*mclefG2	*mclefG2
*k[]	*	*k[]	*k[]	*k[]	*k[]	*k[]	*k[]	*k[]
*M4/4	*	*M4/4	*M4/4	*M4/4	*M4/4	*M4/4	*M4/4	*M4/4
*met(c)	*	*met(c)	*met(c)	*met(c)	*met(c)	*met(c)	*met(c)	*met(c)
*MM180	*	*MM180	*MM180	*MM180	*MM180	*MM180	*MM180	*MM180
*	*above	*	*	*	*	*	*	*
*	*slash	*	*	*	*	*	*	*
*	*	*	*^	*^	*	*	*	*
=1	=1	=1	=1	=1	=1	=1	=1	=1	=1	=1
2E	.	2b	2G	2E	2b	2e	2E	2G	2e	2b
=2	=2	=2	=2	=2	=2	=2	=2	=2	=2	=2
2G	6	2e	2B	2G	2e	2e	2G	2B	2e	2e
2E	.	2b	2G	2E	2b	2e	2E	2G	2e	2b
=3	=3	=3	=3	=3	=3	=3	=3	=3	=3	=3
2AA	.	2cc	2A	2AA	2cc	2e	2AA	2A	2e	2cc
2BB	8 #	4b	2F#X	2BB	4b	2d#X	2BB	2F#X	2d#X	(4b
.	7	4a	.	.	4a	.	.	.	.	4a)
=4	=4	=4	=4	=4	=4	=4	=4	=4	=4	=4
1C	5	2g	1E	1C	2g	1e	2C	2E	2e	2g
.	6	2a	.	.	2a	.	2C	2A	2e	2a
=5	=5	=5	=5	=5	=5	=5	=5	=5	=5	=5
2BB	#	2b	2F#X	2BB	2b	2d#X	2BB	2F#X	2d#X	2b
2E	#	2b	2G#X	2E	2b	2e	2E	2G#X	2e	2b
=6	=6	=6	=6	=6	=6	=6	=6	=6	=6	=6
2A	.	2cc	[2A	2A	2cc	2e	2A	2A	2e	2cc
2D	5	2dd	4A]	2Dni	2ddni	2fni	2D	(4A	2f	2dd
.	6	.	4B	.	.	.	.	4B)	.	.
=7	=7	=7	=7	=7	=7	=7	=7	=7	=7	=7
2E	6	2cc	2.c	2E	2cc	2g	2E	2c	2g	2cc
2F	5	2a	.	2F	2a	2f	2F	(4c	2f	2a
.	6	.	4d	.	.	.	.	4d)	.	.
=8	=8	=8	=8	=8	=8	=8	=8	=8	=8	=8
2C#X	5	(2g	4ryy	2C#X	4e	2e	(2C#X	(4e	(2e	(2g
.	.	.	4A	.	4ryy	.	.	2A	.	.
2D	.	2f)	2A	2D	2f	4d	2D)	.	4d	2f)
.	.	.	.	.	.	4cni	.	4A)	4c)	.
=9	=9	=9	=9	=9	=9	=9	=9	=9	=9	=9
2E	#	2e	2G#X	2E	2e	2B	2E	2G#X	2B	2e
=10:|!	=10:|!	=10:|!	=10:|!	=10:|!	=10:|!	=10:|!	=10:|!	=10:|!	=10:|!	=10:|!
[2F	6	2a	2A	[2F	2a	2d	[2F	2A	2d	2a
=11	=11	=11	=11	=11	=11	=11	=11	=11	=11	=11
2F]	4 2	2g	2B	2F]	2g	2d	2F]	2B	2d	2g
*	*	*	*	*	*	*^	*	*	*	*
4E	6	2cc	4c	4E	2cc	4g	4e\	(4E	(4c	(4g	2cc
4F#X	5	.	4A	4F#X	.	4a	4d\	4F#X)	4A)	4a)	.
=12	=12	=12	=12	=12	=12	=12	=12	=12	=12	=12	=12
1G	8 5	2b	2d	2G	2b	4g	2d\	2G	2d	(4g	2b
.	n7	.	.	.	.	4fni	.	.	.	4f)	.
.	#4|	2a	2A	2G	2a	2e	2c#X\	2G	2c#X	2e	2a
*	*	*	*	*	*	*v	*v	*	*	*	*
=13	=13	=13	=13	=13	=13	=13	=13	=13	=13	=13
4F	6	4dd	2.A	4F	4dd	4d	(4F	(4d	[2a	(4dd
4E	6 4	4cc	.	4E	4ccni	4e	4E)	4e)	.	4cc)
4D	6 5	2b	.	4D	2b	4f	(4D	(4f	(4a]	2b
4E	#	.	4G#X	4E	.	4e	4E)	4e)	4g#X)	.
=14	=14	=14	=14	=14	=14	=14	=14	=14	=14	=14
*	*	*	*	*	*	*^	*	*	*	*
2AA	.	2a	2A	2AA	2a	2c	2e/	2AA	2c	2a	2a
*	*	*	*	*	*	*v	*v	*	*	*	*
2F#X	5	2cc	2A	2F#X	2cc	2d	2F#X	2d	2a	2cc
=15	=15	=15	=15	=15	=15	=15	=15	=15	=15	=15
2G	.	2b	2G	2G	2b	2d	2G	2d	2g	2b
2C	.	2cc	2G	2C	2cc	2e	2C	2e	2g	2cc
=16	=16	=16	=16	=16	=16	=16	=16	=16	=16	=16
2BB	6	2dd	2G	2BB	2dd	2d	2BB	2d	2g	2dd
2E	.	2g	2G	2E	2g	2B	2E	2B	[2g	2g
=17	=17	=17	=17	=17	=17	=17	=17	=17	=17	=17
2AA	7	2cc	2.G	2AA	2cc	2e	2AA	2c	2g]	2cc
2D	4	2a	.	2D	2a	2d	2D	2d	(4g	2a
.	#	.	4F#X	.	.	.	.	.	4f#X)	.
=18	=18	=18	=18	=18	=18	=18	=18	=18	=18	=18
*	*	*	*	*	*	*^	*	*	*	*
2GG	.	2g	2G	2GG	2g	2B	2d/	2GG	2B	2g	2g
*	*	*	*	*	*	*v	*v	*	*	*	*
2F	2	2g	2B	2Fni	2g	2d	2F	2B	2d	2g
=19	=19	=19	=19	=19	=19	=19	=19	=19	=19	=19
2E	6	2cc	2c	2E	2cc	2g	2E	2c	2g	2cc
4D	6	2b	4d	4D	2b	4f	(4D	(4d	(4f	2b
4E	5	.	4G	4E	.	4g	4E)	4G)	4e)	.
=20	=20	=20	=20	=20	=20	=20	=20	=20	=20	=20
4F	.	2a	2c	4F	2a	2f	(4F	2A	2c	2a
4G	.	.	.	4G	.	.	4G)	.	.	.
2A	.	2e	2A	2A	2e	2c	2A	2A	2c	2e
=21	=21	=21	=21	=21	=21	=21	=21	=21	=21	=21
2C#X	5	(2g	1A	2C#X	2g	2e	(2C#X	1A	(2e	(2g
2D	8	2f)	.	2D	2f	4d	2D)	.	4d	2f)
.	7	.	.	.	.	4cni	.	.	4c)	.
=22	=22	=22	=22	=22	=22	=22	=22	=22	=22	=22
2E	#	2e	2G#X	2E	2e	2B	2E	2G#X	2B	2e
*	*	*	*v	*v	*	*	*	*	*	*
*	*	*	*	*v	*v	*	*	*	*
==	==	==	==	==	==	==	==	==
*-	*-	*-	*-	*-	*-	*-	*-	*-
!!!system-decoration: {(s1,s2,s3,s4)}{(s5,s6)}{(s7,s8)}
!!!RDF**kern: i = editorial accidental, paren
!!!RDF**kern: > = above
!!!RDF**kern: < = below
!!!AGN: chorale
!!!EED: Derek Remeš
!!!EED2: Victor Phan
!!!END: 2023/11/28
!!!ENC: Wolfgang Drescher
!!!EEV: 2023/12/12
!!!title: @{ONM}. @{OTL}
!!!verovio: mnumInterval 1